Yaru++/apps/16/pgmodeler.svg

<svg height="16" width="16" xmlns="http://www.w3.org/2000/svg">
  <path d="m6.7292313.00003186c-.6084417-.00147-1.1999664.048301-1.7391513.1486533-.7000958.2314413-1.284399.534397-1.6856234 1.27131374-.4318362.6989626-.5840918 1.6488682-.5976807 2.3393672-.010312.5377903-.1047988 1.8408745.9154194 3.2345287.3742079.448412.9256405.9242303 1.5854369 1.1937334 1.5380851.4754849 2.0163846-.5757786 2.7950851-2.1261526-.1865976.8253878-.2756377 1.6759999-.9175907 2.3840343.5199656.8244954 1.3748291 1.2426715 2.1825787 1.9682811.1612605.146511.4157047.229009.180115.601837-.3424593.577455-.7021451.947351-1.0676858 1.405864-.2393949.326012-.3951193.549132-.4745286.807455-.073049.571954-.021282 1.075674.2786779 1.623777.1389246.295512.3092176.575415.5450525.84688.245142.301485.4050149.374931.8110742.225326.3409098-.122757.6505395-.273117.9203025-.55102.120051-.201936.14935-.64415-.195125-.828075-.125253-.0814-.25998-.166282-.3446856-.259867-.1492958-.164953-.2975275-.325248-.3166516-.579418-.0127985-.169768.2253265-.454997.2253265-.454997.8978387-.830012 1.8912987-1.641307 2.3514847-2.163768 1.011519-1.1750372 1.505795-3.1222468 1.379458-4.9986383.025302-1.414573-.566335-2.9780152-1.548369-4.1910003-.610172-.6949858-1.286407-1.21119524-2.2635914-1.45993164-.9442567-.2906868-2.0052588-.4357017-3.0193283-.4381829zm4.2906467 5.11998214a.63999634.63999634 0 0 1 .639997.6400014.63999634.63999634 0 0 1 -.639997.6399966.63999634.63999634 0 0 1 -.640001-.6399966.63999634.63999634 0 0 1 .640001-.6400014zm-.54795 3.2003554c.08191-.00637.153346.059819.296399.1848176l2.018008 1.669709c-.275735-.0077-.637324.09279-1.03821.05751-.87131-.07668-1.9121927-.3199377-1.9968537-.6347553-.047761-.4368295.044721-.7780482.4718167-1.1241117.115123-.099205.185127-.148217.24884-.1531696z" fill="#808080"/>
</svg>

<svg xmlns="http://www.w3.org/2000/svg" width="16" height="16" version="1.1">
 <path style="fill:#808080" d="M 6.7292313,3.1864963e-5 C 6.1207896,-0.00143814 5.5292649,0.04833286 4.99008,0.14868516 4.2899842,0.38012646 3.705681,0.68308216 3.3044566,1.4199989 2.8726204,2.1189615 2.7203648,3.0688671 2.7067759,3.7593661 2.6964639,4.2971564 2.6019771,5.6002406 3.6221953,6.9938948 3.9964032,7.4423068 4.5478358,7.9181251 5.2076322,8.1876282 6.7457173,8.6631131 7.2240168,7.6118496 8.0027173,6.0614756 7.8161197,6.8868634 7.7270796,7.7374755 7.0851266,8.4455099 7.6050922,9.2700053 8.4599557,9.6881814 9.2677053,10.413791 9.4289658,10.560302 9.68341,10.6428 9.4478203,11.015628 9.105361,11.593083 8.7456752,11.962979 8.3801345,12.421492 c -0.2393949,0.326012 -0.3951193,0.549132 -0.4745286,0.807455 -0.073049,0.571954 -0.021282,1.075674 0.2786779,1.623777 0.1389246,0.295512 0.3092176,0.575415 0.5450525,0.84688 0.245142,0.301485 0.4050149,0.374931 0.8110742,0.225326 0.3409098,-0.122757 0.6505395,-0.273117 0.9203025,-0.55102 0.120051,-0.201936 0.14935,-0.64415 -0.195125,-0.828075 -0.125253,-0.0814 -0.25998,-0.166282 -0.3446856,-0.259867 C 9.7716066,14.121015 9.6233749,13.96072 9.6042508,13.70655 9.5914523,13.536782 9.8295773,13.251553 9.8295773,13.251553 10.727416,12.421541 11.720876,11.610246 12.181062,11.087785 13.192581,9.9127478 13.686857,7.9655382 13.56052,6.0891467 13.585822,4.6745737 12.994185,3.1111315 12.012151,1.8981464 11.401979,1.2031606 10.725744,0.68695116 9.7485596,0.43821476 8.8043029,0.14752796 7.7433008,0.00251306 6.7292313,3.1864963e-5 Z M 11.019878,5.120014 A 0.63999634,0.63999634 0 0 1 11.659875,5.7600154 0.63999634,0.63999634 0 0 1 11.019878,6.400012 0.63999634,0.63999634 0 0 1 10.379877,5.7600154 0.63999634,0.63999634 0 0 1 11.019878,5.120014 Z m -0.54795,3.2003554 c 0.08191,-0.00637 0.153346,0.059819 0.296399,0.1848176 l 2.018008,1.669709 c -0.275735,-0.0077 -0.637324,0.09279 -1.03821,0.05751 C 10.876815,10.155726 9.8359323,9.9124683 9.7512713,9.5976507 9.7035103,9.1608212 9.7959923,8.8196025 10.223088,8.473539 10.338211,8.374334 10.408215,8.325322 10.471928,8.3203694 Z"/>
</svg>
